X:1
T:Quam pulchri sunt
T:Victoria
T:Quam pulchri sunt
C:Victoria
%%score [ 1 2 3 4 ]
L:1/8
Q:1/2=92
M:4/2
K:G
V:1 treble nm="Soprano" snm="S."
V:2 treble nm="Alto" snm="A."
V:3 treble-8 transpose=-12 nm="Tenor" snm="T."
V:4 bass nm="Bass" snm="B."
V:1
"^How lovely are your feet, daughter of the prince,your neck like ivory, your eyes divine,and the hair of your head like royal purple.How lovely and pleasing,dearly beloved. Alleluia." G16 | %1
w: Quam|
 B8 c8 | B4 G2 A2 B2 c2 d4- | d2 c2 B8 A4 | B16- | B16 | A16- | A8 z8 | D16- | D8 F8 | %10
w: pul- chri|sunt gres- * * * *|* * * sus|tu-||i.|_|quam|_ pul-|
 G8 F4 D2 E2 | F2 G2 A2 F2 G2 A2 B4 | G4 B6 c2 d4- | d2 c2 B8 A4 | B16- | B8 z8 | G16 | G8 A8 | %18
w: chri sunt gres- *||sus tu- * *||i,|_|quam|pul- chri|
 B4 G2 A2 B2 c2 d4- | d4 c4 B4 A2 G2 | A8 B8- | B8 z4 G4- | G2 G2 G4 A6 B2 | c8 d8- | d4 d4 G8 | %25
w: sunt gres- * * * *|* sus tu- * *|* i,|_ fi-|* li- a prin- *||* ci- pis,|
 z4 c6 c2 c4 | d4 c8 B2 A2 | B4 B4 c8 | z8 G8- | G8 A8 | c12 B4 | c4 B2 A2 G2 A2 B2 G2 | A16 | %33
w: fi- li- a|prin- * * *|* ci- pis!|Col-|* lum|tu- *|||
 G16 | z8 G8- | G8 A8 | B6 A2 G6 F2 | E8 F8- | F8 z8 | z16 | z16 | z4 G8 G4 | c8 A4 A4 | %43
w: um,|cul-|* lum|tu- * * *|* um,|_|||si- cut|tur- ris e-|
 d6 c2 B2 A2 G4- | G2 F2 E2 D2 E4 E4 | D16- | D8 z8 | z8 z4 B4- | B2 B2 B4 c8 | B4 d4 c4 B4- | %50
w: bur- * * * *|* * * * * ne-|a,|_|o-|* cu- li tu-|i di- vi- *|
 B4 A4 B8- | B8 ^G8- | G8 z4 A4- | A2 A2 A4 B8 | G4 A4 B4 c4 | d16 | B16 | z4 G4 B4 B4 | c8 B4 G4 | %59
w: |* ni,|_ o-|* cu- li tu-|i di- vi- *||ni,|et co- mae|ca- pi- tis|
 A8 B8- | B8 z4 G4 | B4 B4 c8 | B4 G4 B8 | A8 G8 | z4 d6 d2 d4 | c4 A4 B8 | A4 d6 d2 d4 | %67
w: tu- i,|_ et|co- mae ca-|pi- tis tu-|* i,|si- cut pur-|pu- ra re-|gis, si- cut pur-|
 c4 B4 A4 G4- | G4 F4 G8 | z8 z4 B4 | B4 A4 B8 | z4 d4 d4 d4 | B2 A2 B2 c2 d8 | A4 d4 B8 | %74
w: pu- ra re- *|* * gis.|Quam|pul- chra es,|et quam de-|co- * * * *|ra, ca- ris-|
 c8 A4 B4- | B2 A2 G2 F2 E4 G4- | G4 F4 G8 | D8 E8 | F8 G8 | A8 B8 | z4 d6 c2 B2 A2 | %81
w: si- ma, ca-|* * * * * ris-|* si- ma!|Al- le-|* lu-|* ia,|al- * * *|
 B4 A4 B2 A2 G2 F2 | G4 A6 G2 G4- | G4 F2 E2 F8 | G16- | G16- | G16 |] %87
w: * le- lu- * * *|||ia.|_||
V:2
 z16 | z16 | D16 | D8 E8 | D8 G,6 A,2 | B,2 C2 D4 G,4 G4- | G4 F2 E2 F8 | z4 D4 C2 B,2 B,2 A,G, | %8
w: ||Quam|pul- chri|sunt gres- *|* * * sus tu-|* * * i,|quam pul- * * * *|
 A,4 A,4 B,4 G,2 A,2 | B,2 C2 D4 A,4 D4- | D4 ^C4 D8 | z8 G,8- | G,16 | B,8 C8 | %14
w: * chri sunt gres- *|* * * sus tu-|* * i,|quam|_|pul- chri|
 B,4 G,2 A,2 B,2 C2 D4 | G,4 G8 F4 | E4 D4 E6 DC | B,8 A,8 | G,4 D6 E2 F2 D2 | E2 F2 G8 F2 E2 | %20
w: sunt gres- * * * *|sus tu- *|||i, gres- * * *|* * * sus _|
 F8 G4 D4- | D2 D2 D4 E8- | E4 E4 C4 C4- | C2 C2 C4 =F8- | F4 =F4 E4 G4- | G2 G2 G4 A8- | %26
w: tu- i, fi-|* li- a prin-|* ci- pis, fi-|* li- a prin-|* ci- pis, fi-|* li- a prin-|
 A4 G4 G8 | z8 C8- | C8 D8 | E12 D2 C2 | E4 F4 G8- | G8 E4 G4- | G4 F2 E2 F8 | z8 D8- | D8 E8 | %35
w: * ci- pis!|col-|* lum|tu- * *||* um, tu-|* * * um,|col-|* lum|
 G12 F4 | G6 F2 E4 D4- | D4 ^C4 D8 | z4 D8 D4 | G8 E4 E4 | A6 G2 F2 E2 D4- | D2 B,2 E8 D4 | %42
w: tu- *||* * um,|si- cut|tur- ris e-|bur- * * * *||
 C12 C4 | B,8 z4 D4 | G6 F2 E2 D2 C2 B,2 | A,4 G,4 A,4 A,4 | B,4 D6 D2 D4 | E8 D8 | z4 G4 E4 F4 | %49
w: * ne-|a e-|bur- * * * * *|* * * ne-|a, o- cu- li|tu- i,|o- cu- li|
 G8 E4 G4- | G4 F2 E2 F8- | F8 E8 | z4 E6 E2 E4 | F8 G4 D4 | E4 F4 G8- | G4 F2 E2 F8 | G8 z4 G,4 | %57
w: tu- i di-|* * * vi-|* ni,|o- cu- li|tu- i di-|vi- * *||ni, et|
 G6 E2 F4 G4 | E8 z4 D4 | F4 F4 G8 | F4 D4 E2 F2 G2 E2 | F4 G8 F4 | G8 D8 | z8 z4 G4- | %64
w: co- mae ca- pi-|tis, et|co- mae ca-|pi- tis tu- * * *||* i,|si-|
 G2 G2 G4 F4 D4 | E2 D2 E2 F2 G8- | G4 F2 E2 F2 G2 A2 F2 | G6 F2 E4 D4 | C8 D8- | D8 z4 G4 | %70
w: * cut pur- pu- ra|re- * * * *|||* gis.|_ Quam|
 G4 F4 G8 | z4 D4 G4 G4 | G8 F4 D2 E2 | F2 G2 A2 F2 G2 A2 B2 G2 | A4 G8 F4 | G4 E4 G4 E4 | %76
w: pul- chra es,|et quam de-|co- ra, ca- *||* ris- si-|ma, ca- ris- si-|
 D8 z4 B,4- | B,4 A,4 B,4 ^C4 | D6 =C2 B,2 A,2 B,4 | A,4 D8 E4- | E4 F4 G8 | D8 z4 D4 | E4 D8 ^C4 | %83
w: ma! Al-|* le- lu- *||ia, al- le-|* * lu-|ia, al-|le- lu- *|
 D8 z4 D4- | D2 C2 B,2 A,2 G,4 B,4 | C4 D4 E8 | D16 |] %87
w: ia, al-|* * * * * le-|lu- * *|ia.|
V:3
 z16 | z16 | G16 | B8 c8 | B4 G2 A2 B2 c2 d4 | G4 B6 A2 B2 c2 | d6 cB A4 D2 E2 | F2 G2 A6 G2 G4- | %8
w: ||Quam|pul- chri|sunt gres- * * * *|sus tu- * * *|||
 G4 F4 G8- | G8 z8 | z16 | d16- | d16 | d8 e8 | d8 z4 G2 A2 | B2 c2 d2 B2 c8- | c4 B4 c6 BA | %17
w: * * i,|_||quam|_|pul- chri|sunt gres- *||* sus tu- * *|
 G8 D4 d4- | d2 c2 B2 A2 G4 A4 | B4 G4 d8- | d8 z4 G4- | G2 G2 G4 c8- | c4 B4 A6 G2 | %23
w: * i, gres-|* * * * * sus|tu- * i,|_ fi-|* li- a prin-||
 A2 B2 c8 B2 A2 | B4 B4 c4 e4- | e2 e2 e4 =f8- | f4 e4 d6 c2 | d4 e6 d2 c2 B2 | A4 A4 G8 | z8 c8- | %30
w: |* ci- pis, fi-|* li- a prin-|||* ci- pis!|Col-|
 c8 d8 | e16 | d8 z4 d4 | B4 c8 B2 A2 | B2 c2 d8 ^c2 B2 | ^c4 B4 d8 | G8 z8 | z4 A8 A4 | d8 B4 B4 | %39
w: * lum|tu-|um, col-|lum tu- * *|||um|si- cut|tur- ris e-|
 e6 d2 c2 B2 A4- | A2 G2 F2 E2 F4 G4- | G2 F2 E2 D2 E2 F2 G4- | G4 F2 E2 F4 F4 | G4 d6 c2 B2 A2 | %44
w: bur- * * * *|||* * * * ne-|a, e- * * *|
 B4 c6 B2 A2 G2 | F4 G8 F4 | G4 B6 B2 B4 | c8 B4 d4- | d2 d2 d4 c8 | d4 B4 c4 d4 | e12 ^d2 ^c2 | %51
w: * bur- * * *|* * ne-|a, o- cu- li|tu- i, o-|* cu- li tu-|i di- vi- *||
 ^d8 e4 B4- | B2 B2 B4 ^c8 | d4 d6 =c2 B2 A2 | B4 A4 G8 | A16 | G4 d4 d4 d4 | e8 d4 e4 | %58
w: * ni, o-|* cu- li tu-|i di- * * *||vi-|ni, et co- mae|ca- pi- tis|
 c2 d2 e2 c2 d8- | d8 G4 d4 | d6 G2 c4 e4 | d8 c8 | d8 z4 d4- | d2 d2 d4 B4 G4 | B8 A8 | %65
w: tu- * * * *|* i, et|co- mae ca- pi-|tis tu-|i si-|* cut pur- pu- ra|re- gis,|
 z8 z4 d4- | d2 d2 d4 A4 d4 | e6 d2 c4 B4 | A8 G4 B4 | B4 A4 B8 | z4 d4 d4 d4 | B6 A2 B2 c2 d4- | %72
w: si-|* cut pur- pu- ra|re- * * *|* gis. Quam|pul- chra es|et quam de-|co- * * * *|
 d2 c2 B4 A8 | d8 e8 | c8 d8 | G4 B4 c8 | A8 B8 | z16 | z4 D4 E8 | F8 G8 | A8 B8 | z4 d6 c2 B2 A2 | %82
w: * * * ra,|ca- ris-|* si-|ma, ca- ris-|si- ma!||Al- le-|* lu-|* ia,|al- * * *|
 B4 A4 B4 A2 G2 | A16 | G4 d4 B4 e4- | e4 d4 c8- | c4 B2 A2 B8 |] %87
w: * le- lu- * *||ia, al- le- lu-||* * * ia.|
V:4
 z16 | z16 | z16 | z16 | z16 | z16 | D,16 | D,8 E,8 | D,8 z4 G,,4- | G,,2 A,,2 B,,2 C,2 D,4 B,,4 | %10
w: ||||||Quam|pul- chri|sunt gres-|* * * * * sus|
 E,8 D,8- | D,8 z8 | z16 | z16 | G,16 | G,8 A,8 | G,8 z4 C,2 D,2 | E,2 F,2 G,8 F,4 | G,12 F,4 | %19
w: tu- i,|_|||quam|pul- chri|sunt gres- *|* * * sus|tu- *|
 E,8 D,8- | D,8 G,,8- | G,,8 z4 C,4- | C,2 C,2 C,4 =F,8- | F,4 E,4 D,8- | D,4 D,4 C,8- | C,8 z8 | %26
w: |* i,|_ fi-|* li- a prin-||* ci- pis!|_|
 z8 G,8- | G,8 A,8 | C12 B,4 | C6 B,2 A,8- | A,8 G,8 | z16 | D,16 | E,8 G,8- | G,4 F,4 E,8- | %35
w: Col-|* lum|tu- *||* um,||col-|lum tu-||
 E,8 D,8 | z4 G,8 G,4 | A,8 D,4 D,4- | D,4 D,4 G,8 | E,4 E,4 A,6 G,2 | F,2 E,2 D,6 C,2 B,,2 A,,2 | %41
w: * um,|col- lum|tu- um si-|* cut tur-|ris e- bur- *||
 B,,4 C,6 B,,2 B,,2 A,,G,, | A,,12 A,,4 | G,,4 G,,4 G,6 F,2 | E,2 D,2 C,8 C,4 | D,16 | %46
w: |* ne-|a, e bur- *|* * * ne-|a,|
 z4 G,6 G,2 G,4 | C,8 G,,4 G,4- | G,2 G,2 G,4 A,8 | G,4 G,4 A,4 B,4 | C8 B,8- | B,8 E,4 E,4- | %52
w: o- cu- li|tu- i, o-|* cu- li tu-|i di- vi- *||* ni, o-|
 E,2 E,2 E,4 A,8 | D,4 D,4 G,8- | G,4 F,4 E,8 | D,16 | z4 G,4 B,4 B,4 | C8 B,4 G,4 | A,8 G,8 | %59
w: * cu- li tu-|i di- vi-||ni,|et co- mae|ca- pi- tis|tu- i,|
 z8 z4 G,4 | B,4 B,4 C8 | B,4 G,4 A,8 | G,4 G,6 G,2 G,4 | F,4 D,4 E,6 F,2 | G,8 D,8 | %65
w: et|co- mae ca-|pi- tis tu-|i si- cut pur-|pu- ra re- *|* gis,|
 A,6 G,F, E,2 F,2 G,4 | D,16 | z16 | z8 z4 G,4 | G,4 F,4 G,8 | z4 D,4 G,4 G,4 | G,16- | G,8 D,8- | %73
w: re- * * * * *|gis.||Quam|pul- chra es|et quam de|co-|* ra,|
 D,8 z8 | z8 D,8 | E,8 C,8 | D,8 G,,4 G,4- | G,4 F,4 ^G,4 A,4 | D,8 z8 | z8 z4 E,4 | %80
w: _|ca-|ris- *|si- ma! Al-|* le- lu- *|ia,|al-|
 ^C,4 D,4 G,,4 G,4- | G,4 F,4 G,8- | G,4 F,4 E,8 | D,16 | z4 G,6 F,2 E,2 D,2 | C,4 B,,4 C,8 | %86
w: le- lu- ia, al-|* le- lu-||ia,|al- * * *|* le- lu-|
 G,,16 |] %87
w: ia.|

